src/assets/images/prototype/produits-armoire/1-lessive.svg

<svg width="270" height="666" viewBox="0 0 270 666" fill="none" xmlns="http://www.w3.org/2000/svg">
<path d="M13.1623 303.5C-1.63767 410.3 13.6623 578 23.1623 648.5C128.763 668.1 219.496 656.667 251.662 648.5C257.329 586.167 267.262 434.2 261.662 325C256.062 215.8 211.329 114.833 189.662 78L179.662 46.5H105.162L97.6621 78C75.6622 108.667 27.9623 196.7 13.1623 303.5Z" fill="white" stroke="#81EC40" stroke-width="13"/>
<path d="M108.164 7V46H178.164V7H149.664H108.164Z" fill="white" stroke="#81EC40" stroke-width="13"/>
</svg>

<svg width="270" height="666" fill="none" xmlns="http://www.w3.org/2000/svg"><path d="M13.162 303.5c-14.8 106.8.5 274.5 10 345 105.601 19.6 196.334 8.167 228.5 0 5.667-62.333 15.6-214.3 10-323.5-5.6-109.2-50.333-210.167-72-247l-10-31.5h-74.5l-7.5 31.5c-22 30.667-69.7 118.7-84.5 225.5zM108.164 7v39h70V7h-70z" fill="#fff" stroke="#81EC40" stroke-width="13"/></svg>
